/* XPM */
static char * menu_inactive_xpm[] = {
"20 30 57 1",
" 	c None",
".	c #C3D1DF",
"+	c #C3D2DF",
"@	c #C4D2E0",
"#	c #C4D1E0",
"$	c #C5D3E0",
"%	c #C5D3E1",
"&	c #C5D2E1",
"*	c #C6D4E2",
"=	c #C5D3E2",
"-	c #C6D4E1",
";	c #C6D3E1",
">	c #C7D5E2",
",	c #C6D5E2",
"'	c #C7D4E2",
")	c #C7D5E3",
"!	c #C8D5E3",
"~	c #C8D6E4",
"{	c #C8D6E3",
"]	c #C9D6E4",
"^	c #C9D6E5",
"/	c #C9D7E5",
"(	c #CAD7E5",
"_	c #CAD7E6",
":	c #CAD8E5",
"<	c #CAD8E6",
"[	c #CBD8E6",
"}	c #CBD8E7",
"|	c #CCD8E7",
"1	c #CBD9E7",
"2	c #CCD9E7",
"3	c #CBD9E6",
"4	c #CCD9E8",
"5	c #CCDAE7",
"6	c #CCDAE8",
"7	c #CDDBE8",
"8	c #CDDAE8",
"9	c #CCDBE9",
"0	c #CEDBE9",
"a	c #CDDBE9",
"b	c #CEDCEA",
"c	c #CFDCEA",
"d	c #CFDDEA",
"e	c #CFDCEB",
"f	c #D0DCEA",
"g	c #D0DDEA",
"h	c #D0DDEB",
"i	c #D0DEEB",
"j	c #D0DDEC",
"k	c #D0DEEC",
"l	c #D1DFED",
"m	c #D1DEEC",
"n	c #D1DEED",
"o	c #D2DFED",
"p	c #D2DEED",
"q	c #D3E0EE",
"r	c #D2E0EE",
"                    ",
"                    ",
"                    ",
"                    ",
"                    ",
"............+++.....",
"@@@@@@@@@@@@@@@##@@@",
"$$$$$%%&&&&&$$$$$&&&",
"**===--*****;;;==;;;",
">>***,,'''''*****,,,",
"))>>>!!))))))))))!!!",
"~~{{{~~]]]{{{{{~~{{{",
"^^]]]~~///^^~~~//]]]",
"//(((_____//:::<<:::",
"<<[[[[[[[[<<[[[[[[[[",
"}}|||112221111133111",
"44444225554455544222",
"66777888889988888888",
"0000000aaa0000000000",
"bbcccbbccccccccccbbb",
"ddeeeffeeedddddffggg",
"hhhhhhhiiiiijjjkkhhh",
"llmmmmmmmmnnmmmmmmmm",
"lloooooooooolllooppp",
"qqqqqqqqqqqqrrrqqrrr",
"                    ",
"                    ",
"                    ",
"                    ",
"                    "};
