/* XPM */
static char * menu_active_xpm[] = {
"20 30 76 1",
" 	c None",
".	c #9EB9D5",
"+	c #9FBAD4",
"@	c #9FB9D5",
"#	c #9EB9D4",
"$	c #9EBAD5",
"%	c #9FBAD6",
"&	c #9FBBD6",
"*	c #A0BAD6",
"=	c #A0BAD5",
"-	c #A0BBD6",
";	c #9FBAD5",
">	c #A0BCD7",
",	c #A1BCD7",
"'	c #A0BBD7",
")	c #A2BCD8",
"!	c #A2BCD7",
"~	c #A1BDD7",
"{	c #A1BDD8",
"]	c #A2BDD8",
"^	c #A2BED8",
"/	c #A3BED9",
"(	c #A2BED9",
"_	c #A3BDD8",
":	c #A3BED8",
"<	c #A4BFD9",
"[	c #A4BED9",
"}	c #A4BEDA",
"|	c #A4C0DA",
"1	c #A5BFDA",
"2	c #A4BFDA",
"3	c #A5C0DA",
"4	c #A5BFDB",
"5	c #A6C0DB",
"6	c #A5C1DB",
"7	c #A6C1DB",
"8	c #A7C1DC",
"9	c #A7C2DC",
"0	c #A6C2DB",
"a	c #A7C1DB",
"b	c #A8C2DD",
"c	c #A8C3DD",
"d	c #A8C2DC",
"e	c #A9C3DE",
"f	c #A9C4DD",
"g	c #A9C3DD",
"h	c #AAC3DD",
"i	c #AAC4DE",
"j	c #ABC4DE",
"k	c #ABC4DF",
"l	c #AAC4DF",
"m	c #ABC5DF",
"n	c #ACC5DF",
"o	c #ABC5E0",
"p	c #ACC6E1",
"q	c #ADC6E0",
"r	c #ACC6E0",
"s	c #ADC7E1",
"t	c #AEC7E1",
"u	c #AFC8E2",
"v	c #AEC8E2",
"w	c #B0C9E3",
"x	c #AFC9E3",
"y	c #B0C9E2",
"z	c #B0C8E3",
"A	c #B1C9E4",
"B	c #B1CAE4",
"C	c #B0CAE3",
"D	c #B1CAE3",
"E	c #B2CBE5",
"F	c #B2CBE4",
"G	c #B2CAE5",
"H	c #B3CBE5",
"I	c #B3CCE6",
"J	c #B3CCE5",
"K	c #B4CCE6",
"                    ",
"                    ",
"                    ",
"                    ",
"                    ",
"..+++.....@@###@@$$$",
"%%&&&**===%%---**;;;",
">>,,,-----,,--->>'''",
")),,,!!!!!~~{{{]]~~~",
"^^///((___^^]]]__:::",
"<<[[[[[[[[[[[[[}}[[[",
"||111223331122244111",
"55555665557755555555",
"889990088888888aaaaa",
"bbcccbbcccddcccbbbbb",
"eefffgghhhhheeeggeee",
"iijjjiikkkllmmmlliii",
"mmmmmmmmmmnnmmmoonnn",
"ppqqqqqrrrqqrrrqqrrr",
"sstttsssssttsssttttt",
"uuuuuvvvvvuuuuuuuuuu",
"wwwwwxxwwwyywwwzzwww",
"AABBBBBBBBCCDDDBBBBB",
"EEFFFEEFFFEEGGGEEEEE",
"HHIIIJJHHHIIIIIJJKKK",
"                    ",
"                    ",
"                    ",
"                    ",
"                    "};
