/* XPM */
static char * title_1_active_xpm[] = {
"8 30 113 2",
"  	c #98B5D1",
". 	c #98B4D1",
"+ 	c #99B5D1",
"@ 	c #98B4D0",
"# 	c #99B5D0",
"$ 	c #99B4D1",
"% 	c #99B6D1",
"& 	c #9AB6D1",
"* 	c #9AB5D1",
"= 	c #99B6D2",
"- 	c #9BB7D2",
"; 	c #9BB6D3",
"> 	c #9BB7D3",
", 	c #9BB6D2",
"' 	c #9AB7D2",
") 	c #9CB7D3",
"! 	c #9CB8D3",
"~ 	c #9DB8D4",
"{ 	c #9DB9D4",
"] 	c #9EB9D5",
"^ 	c #9FBAD4",
"/ 	c #9FB9D5",
"( 	c #9EB9D4",
"_ 	c #9EBAD5",
": 	c #9FBAD6",
"< 	c #9FBBD6",
"[ 	c #A0BAD6",
"} 	c #A0BAD5",
"| 	c #A0BBD6",
"1 	c #9FBAD5",
"2 	c #A0BCD7",
"3 	c #A1BCD7",
"4 	c #A0BBD7",
"5 	c #A2BCD8",
"6 	c #A2BCD7",
"7 	c #A1BDD7",
"8 	c #A1BDD8",
"9 	c #A2BDD8",
"0 	c #A2BED8",
"a 	c #A3BED9",
"b 	c #A2BED9",
"c 	c #A3BDD8",
"d 	c #A3BED8",
"e 	c #A4BFD9",
"f 	c #A4BED9",
"g 	c #A4BEDA",
"h 	c #A4C0DA",
"i 	c #A5BFDA",
"j 	c #A4BFDA",
"k 	c #A5C0DA",
"l 	c #A5BFDB",
"m 	c #A6C0DB",
"n 	c #A5C1DB",
"o 	c #A6C1DB",
"p 	c #A7C1DC",
"q 	c #A7C2DC",
"r 	c #A6C2DB",
"s 	c #A7C1DB",
"t 	c #A8C2DD",
"u 	c #A8C3DD",
"v 	c #A8C2DC",
"w 	c #A9C3DE",
"x 	c #A9C4DD",
"y 	c #A9C3DD",
"z 	c #AAC3DD",
"A 	c #AAC4DE",
"B 	c #ABC4DE",
"C 	c #ABC4DF",
"D 	c #AAC4DF",
"E 	c #ABC5DF",
"F 	c #ACC5DF",
"G 	c #ABC5E0",
"H 	c #ACC6E1",
"I 	c #ADC6E0",
"J 	c #ACC6E0",
"K 	c #ADC7E1",
"L 	c #AEC7E1",
"M 	c #AFC8E2",
"N 	c #AEC8E2",
"O 	c #B0C9E3",
"P 	c #AFC9E3",
"Q 	c #B0C9E2",
"R 	c #B0C8E3",
"S 	c #B1C9E4",
"T 	c #B1CAE4",
"U 	c #B0CAE3",
"V 	c #B1CAE3",
"W 	c #B2CBE5",
"X 	c #B2CBE4",
"Y 	c #B2CAE5",
"Z 	c #B3CBE5",
"` 	c #B3CCE6",
" .	c #B3CCE5",
"..	c #B4CCE6",
"+.	c #B5CDE6",
"@.	c #B4CDE7",
"#.	c #B5CDE7",
"$.	c #B4CDE6",
"%.	c #B6CEE8",
"&.	c #B5CEE7",
"*.	c #B6CEE7",
"=.	c #B6CDE8",
"-.	c #B6CFE8",
";.	c #B7CEE8",
">.	c #B7CFE8",
",.	c #B8D0E9",
"'.	c #B7D0E9",
").	c #B8D0E8",
"!.	c #B7CFE9",
"~.	c #B9D0EA",
"{.	c #B9D1EA",
"].	c #B9D0E9",
"^.	c #B9D1E9",
"  . + + @ # $ + ",
"% & & & & % * = ",
"- - ; > - , , ' ",
"> ) > ) ! ) ) ) ",
"~ ~ ~ ~ ~ { ~ ~ ",
"] ^ ] ] / ( / _ ",
": < [ } : | [ 1 ",
"2 3 | | 3 | 2 4 ",
"5 3 6 6 7 8 9 7 ",
"0 a b c 0 9 c d ",
"e f f f f f g f ",
"h i j k i j l i ",
"m m n m o m m m ",
"p q r p p p s s ",
"t u t u v u t t ",
"w x y z z w y w ",
"A B A C D E D A ",
"E E E E F E G F ",
"H I I J I J I J ",
"K L K K L K L L ",
"M M N N M M M M ",
"O O P O Q O R O ",
"S T T T U V T T ",
"W X W X W Y W W ",
"Z `  .Z ` `  ...",
"+...@.@.#.$.@.#.",
"%.&.*.*.*.&.&.=.",
"-.;.-.-.>.-.-.>.",
",.'.,.).!.,.,.,.",
"~.{.].{.].{.^.~."};
