/* XPM */
static char * top_left_inactive_xpm[] = {
"8 30 87 1",
" 	c None",
".	c #BFCDDB",
"+	c #C0CEDC",
"@	c #BFCEDC",
"#	c #C0CEDD",
"$	c #C1CEDC",
"%	c #C1CFDD",
"&	c #C1CFDC",
"*	c #C2D0DE",
"=	c #C2D0DD",
"-	c #C2CFDD",
";	c #C1D0DE",
">	c #C2CFDE",
",	c #C3D0DE",
"'	c #C2D0DF",
")	c #C2D1DE",
"!	c #C3D1DF",
"~	c #C3D2DF",
"{	c #C4D2E0",
"]	c #C4D1E0",
"^	c #C5D3E0",
"/	c #C5D3E1",
"(	c #C5D2E1",
"_	c #C6D4E2",
":	c #C5D3E2",
"<	c #C6D4E1",
"[	c #C6D3E1",
"}	c #C7D5E2",
"|	c #C6D5E2",
"1	c #C7D4E2",
"2	c #C7D5E3",
"3	c #C8D5E3",
"4	c #C8D6E4",
"5	c #C8D6E3",
"6	c #C9D6E4",
"7	c #C9D6E5",
"8	c #C9D7E5",
"9	c #CAD7E5",
"0	c #CAD7E6",
"a	c #CAD8E5",
"b	c #CAD8E6",
"c	c #CBD8E6",
"d	c #CBD8E7",
"e	c #CCD8E7",
"f	c #CBD9E7",
"g	c #CCD9E7",
"h	c #CBD9E6",
"i	c #CCD9E8",
"j	c #CCDAE7",
"k	c #CCDAE8",
"l	c #CDDBE8",
"m	c #CDDAE8",
"n	c #CCDBE9",
"o	c #CEDBE9",
"p	c #CDDBE9",
"q	c #CEDCEA",
"r	c #CFDCEA",
"s	c #CFDDEA",
"t	c #CFDCEB",
"u	c #D0DCEA",
"v	c #D0DDEA",
"w	c #D0DDEB",
"x	c #D0DEEB",
"y	c #D0DDEC",
"z	c #D0DEEC",
"A	c #D1DFED",
"B	c #D1DEEC",
"C	c #D1DEED",
"D	c #D2DFED",
"E	c #D2DEED",
"F	c #D3E0EE",
"G	c #D2E0EE",
"H	c #D3E1EF",
"I	c #D4E1EF",
"J	c #D4E1EE",
"K	c #D4E2F0",
"L	c #D4E2EF",
"M	c #D5E2EF",
"N	c #D5E2F0",
"O	c #D6E2F1",
"P	c #D5E3F0",
"Q	c #D5E2F1",
"R	c #D6E3F1",
"S	c #D6E4F2",
"T	c #D7E4F2",
"U	c #D7E4F1",
"V	c #D7E3F2",
"     ...",
"   +@+@+",
"  #$%%$&",
" *=%-;=>",
" *,''),*",
"!!!!!~!!",
"{{{{{{]{",
"^^/((^^(",
"_:<__[:[",
"}_|11__|",
"2}322223",
"45465545",
"76487486",
"89008aba",
"bcccbccc",
"defgffhf",
"iigjijig",
"klmmnmmm",
"ooopoooo",
"qrqrrrrq",
"stutssuv",
"wwwxxyzw",
"ABBBCBBB",
"ADDDDADE",
"FFFFFGFG",
"HHIHJHII",
"KLILIMNM",
"NNNONPQP",
"RRRRRRRR",
"STUTUVTT"};
