/* XPM */
static char * top_left_active_xpm[] = {
"8 30 111 2",
"  	c None",
". 	c #99B5D0",
"+ 	c #99B4D1",
"@ 	c #99B5D1",
"# 	c #9AB6D1",
"$ 	c #99B6D1",
"% 	c #9AB5D1",
"& 	c #99B6D2",
"* 	c #9BB6D3",
"= 	c #9BB7D3",
"- 	c #9BB7D2",
"; 	c #9BB6D2",
"> 	c #9AB7D2",
", 	c #9CB7D3",
"' 	c #9CB8D3",
") 	c #9DB8D4",
"! 	c #9DB9D4",
"~ 	c #9EB9D5",
"{ 	c #9FBAD4",
"] 	c #9FB9D5",
"^ 	c #9EB9D4",
"/ 	c #9EBAD5",
"( 	c #9FBAD6",
"_ 	c #9FBBD6",
": 	c #A0BAD6",
"< 	c #A0BAD5",
"[ 	c #A0BBD6",
"} 	c #9FBAD5",
"| 	c #A0BCD7",
"1 	c #A1BCD7",
"2 	c #A0BBD7",
"3 	c #A2BCD8",
"4 	c #A2BCD7",
"5 	c #A1BDD7",
"6 	c #A1BDD8",
"7 	c #A2BDD8",
"8 	c #A2BED8",
"9 	c #A3BED9",
"0 	c #A2BED9",
"a 	c #A3BDD8",
"b 	c #A3BED8",
"c 	c #A4BFD9",
"d 	c #A4BED9",
"e 	c #A4BEDA",
"f 	c #A4C0DA",
"g 	c #A5BFDA",
"h 	c #A4BFDA",
"i 	c #A5C0DA",
"j 	c #A5BFDB",
"k 	c #A6C0DB",
"l 	c #A5C1DB",
"m 	c #A6C1DB",
"n 	c #A7C1DC",
"o 	c #A7C2DC",
"p 	c #A6C2DB",
"q 	c #A7C1DB",
"r 	c #A8C2DD",
"s 	c #A8C3DD",
"t 	c #A8C2DC",
"u 	c #A9C3DE",
"v 	c #A9C4DD",
"w 	c #A9C3DD",
"x 	c #AAC3DD",
"y 	c #AAC4DE",
"z 	c #ABC4DE",
"A 	c #ABC4DF",
"B 	c #AAC4DF",
"C 	c #ABC5DF",
"D 	c #ACC5DF",
"E 	c #ABC5E0",
"F 	c #ACC6E1",
"G 	c #ADC6E0",
"H 	c #ACC6E0",
"I 	c #ADC7E1",
"J 	c #AEC7E1",
"K 	c #AFC8E2",
"L 	c #AEC8E2",
"M 	c #B0C9E3",
"N 	c #AFC9E3",
"O 	c #B0C9E2",
"P 	c #B0C8E3",
"Q 	c #B1C9E4",
"R 	c #B1CAE4",
"S 	c #B0CAE3",
"T 	c #B1CAE3",
"U 	c #B2CBE5",
"V 	c #B2CBE4",
"W 	c #B2CAE5",
"X 	c #B3CBE5",
"Y 	c #B3CCE6",
"Z 	c #B3CCE5",
"` 	c #B4CCE6",
" .	c #B5CDE6",
"..	c #B4CDE7",
"+.	c #B5CDE7",
"@.	c #B4CDE6",
"#.	c #B6CEE8",
"$.	c #B5CEE7",
"%.	c #B6CEE7",
"&.	c #B6CDE8",
"*.	c #B6CFE8",
"=.	c #B7CEE8",
"-.	c #B7CFE8",
";.	c #B8D0E9",
">.	c #B7D0E9",
",.	c #B8D0E8",
"'.	c #B7CFE9",
").	c #B9D0EA",
"!.	c #B9D1EA",
"~.	c #B9D0E9",
"{.	c #B9D1E9",
"          . + @ ",
"      # # $ % & ",
"    * = - ; ; > ",
"  , = , ' , , , ",
"  ) ) ) ) ! ) ) ",
"~ { ~ ~ ] ^ ] / ",
"( _ : < ( [ : } ",
"| 1 [ [ 1 [ | 2 ",
"3 1 4 4 5 6 7 5 ",
"8 9 0 a 8 7 a b ",
"c d d d d d e d ",
"f g h i g h j g ",
"k k l k m k k k ",
"n o p n n n q q ",
"r s r s t s r r ",
"u v w x x u w u ",
"y z y A B C B y ",
"C C C C D C E D ",
"F G G H G H G H ",
"I J I I J I J J ",
"K K L L K K K K ",
"M M N M O M P M ",
"Q R R R S T R R ",
"U V U V U W U U ",
"X Y Z X Y Y Z ` ",
" .` ....+.@...+.",
"#.$.%.%.%.$.$.&.",
"*.=.*.*.-.*.*.-.",
";.>.;.,.'.;.;.;.",
").!.~.!.~.!.{.)."};
