/* XPM */
static char * top_right_inactive_xpm[] = {
"8 30 87 1",
" 	c None",
".	c #BFCDDB",
"+	c #C0CEDC",
"@	c #BFCEDC",
"#	c #C1CFDC",
"$	c #C1CEDC",
"%	c #C1CFDD",
"&	c #C0CEDD",
"*	c #C2CFDE",
"=	c #C2D0DD",
"-	c #C1D0DE",
";	c #C2CFDD",
">	c #C2D0DE",
",	c #C3D0DE",
"'	c #C2D1DE",
")	c #C2D0DF",
"!	c #C3D1DF",
"~	c #C3D2DF",
"{	c #C4D2E0",
"]	c #C4D1E0",
"^	c #C5D2E1",
"/	c #C5D3E0",
"(	c #C5D3E1",
"_	c #C6D3E1",
":	c #C5D3E2",
"<	c #C6D4E2",
"[	c #C6D4E1",
"}	c #C6D5E2",
"|	c #C7D4E2",
"1	c #C7D5E2",
"2	c #C8D5E3",
"3	c #C7D5E3",
"4	c #C8D6E3",
"5	c #C8D6E4",
"6	c #C9D6E4",
"7	c #C9D7E5",
"8	c #C9D6E5",
"9	c #CAD8E5",
"0	c #CAD8E6",
"a	c #CAD7E6",
"b	c #CAD7E5",
"c	c #CBD8E6",
"d	c #CBD9E7",
"e	c #CBD9E6",
"f	c #CCD9E7",
"g	c #CCD8E7",
"h	c #CBD8E7",
"i	c #CCD9E8",
"j	c #CCDAE7",
"k	c #CDDAE8",
"l	c #CCDBE9",
"m	c #CDDBE8",
"n	c #CCDAE8",
"o	c #CEDBE9",
"p	c #CDDBE9",
"q	c #CEDCEA",
"r	c #CFDCEA",
"s	c #D0DDEA",
"t	c #D0DCEA",
"u	c #CFDDEA",
"v	c #CFDCEB",
"w	c #D0DDEB",
"x	c #D0DEEC",
"y	c #D0DDEC",
"z	c #D0DEEB",
"A	c #D1DEEC",
"B	c #D1DEED",
"C	c #D1DFED",
"D	c #D2DEED",
"E	c #D2DFED",
"F	c #D2E0EE",
"G	c #D3E0EE",
"H	c #D4E1EF",
"I	c #D3E1EF",
"J	c #D4E1EE",
"K	c #D5E2EF",
"L	c #D5E2F0",
"M	c #D4E2EF",
"N	c #D4E2F0",
"O	c #D5E3F0",
"P	c #D5E2F1",
"Q	c #D6E2F1",
"R	c #D6E3F1",
"S	c #D7E4F2",
"T	c #D7E3F2",
"U	c #D7E4F1",
"V	c #D6E4F2",
"...     ",
"+@+@+   ",
"#$%%$&  ",
"*=-;%=> ",
">,')),> ",
"!!~!!!!!",
"{]{{{{{{",
"^//^^(//",
"_:_<<[:<",
"}<<||}<1",
"23333213",
"45446545",
"67587568",
"9097aab7",
"ccc0ccc0",
"deddfdgh",
"fijijfii",
"kkklkkmn",
"oooopooo",
"qrrrrqrq",
"stuuvtvu",
"wxyzzwww",
"AAABAAAC",
"DECEEEEC",
"FGFGGGGG",
"HHIJIHII",
"KLKHMHMN",
"OPOLQLLL",
"RRRRRRRR",
"SSTUSUSV"};
