/* XPM */
static char * top_right_active_xpm[] = {
"8 30 111 2",
"  	c None",
". 	c #99B5D1",
"+ 	c #99B4D1",
"@ 	c #99B5D0",
"# 	c #99B6D2",
"$ 	c #9AB5D1",
"% 	c #99B6D1",
"& 	c #9AB6D1",
"* 	c #9AB7D2",
"= 	c #9BB6D2",
"- 	c #9BB7D2",
"; 	c #9BB7D3",
"> 	c #9BB6D3",
", 	c #9CB7D3",
"' 	c #9CB8D3",
") 	c #9DB8D4",
"! 	c #9DB9D4",
"~ 	c #9EBAD5",
"{ 	c #9FB9D5",
"] 	c #9EB9D4",
"^ 	c #9EB9D5",
"/ 	c #9FBAD4",
"( 	c #9FBAD5",
"_ 	c #A0BAD6",
": 	c #A0BBD6",
"< 	c #9FBAD6",
"[ 	c #A0BAD5",
"} 	c #9FBBD6",
"| 	c #A0BBD7",
"1 	c #A0BCD7",
"2 	c #A1BCD7",
"3 	c #A1BDD7",
"4 	c #A2BDD8",
"5 	c #A1BDD8",
"6 	c #A2BCD7",
"7 	c #A2BCD8",
"8 	c #A3BED8",
"9 	c #A3BDD8",
"0 	c #A2BED8",
"a 	c #A2BED9",
"b 	c #A3BED9",
"c 	c #A4BED9",
"d 	c #A4BEDA",
"e 	c #A4BFD9",
"f 	c #A5BFDA",
"g 	c #A5BFDB",
"h 	c #A4BFDA",
"i 	c #A5C0DA",
"j 	c #A4C0DA",
"k 	c #A6C0DB",
"l 	c #A6C1DB",
"m 	c #A5C1DB",
"n 	c #A7C1DB",
"o 	c #A7C1DC",
"p 	c #A6C2DB",
"q 	c #A7C2DC",
"r 	c #A8C2DD",
"s 	c #A8C3DD",
"t 	c #A8C2DC",
"u 	c #A9C3DE",
"v 	c #A9C3DD",
"w 	c #AAC3DD",
"x 	c #A9C4DD",
"y 	c #AAC4DE",
"z 	c #AAC4DF",
"A 	c #ABC5DF",
"B 	c #ABC4DF",
"C 	c #ABC4DE",
"D 	c #ACC5DF",
"E 	c #ABC5E0",
"F 	c #ACC6E0",
"G 	c #ADC6E0",
"H 	c #ACC6E1",
"I 	c #AEC7E1",
"J 	c #ADC7E1",
"K 	c #AFC8E2",
"L 	c #AEC8E2",
"M 	c #B0C9E3",
"N 	c #B0C8E3",
"O 	c #B0C9E2",
"P 	c #AFC9E3",
"Q 	c #B1CAE4",
"R 	c #B1CAE3",
"S 	c #B0CAE3",
"T 	c #B1C9E4",
"U 	c #B2CBE5",
"V 	c #B2CAE5",
"W 	c #B2CBE4",
"X 	c #B4CCE6",
"Y 	c #B3CCE5",
"Z 	c #B3CCE6",
"` 	c #B3CBE5",
" .	c #B5CDE7",
"..	c #B4CDE7",
"+.	c #B4CDE6",
"@.	c #B5CDE6",
"#.	c #B6CDE8",
"$.	c #B5CEE7",
"%.	c #B6CEE7",
"&.	c #B6CEE8",
"*.	c #B7CFE8",
"=.	c #B6CFE8",
"-.	c #B7CEE8",
";.	c #B8D0E9",
">.	c #B7CFE9",
",.	c #B8D0E8",
"'.	c #B7D0E9",
").	c #B9D0EA",
"!.	c #B9D1E9",
"~.	c #B9D1EA",
"{.	c #B9D0E9",
". + @           ",
"# $ % & &       ",
"* = = - ; >     ",
", , , ' , ; ,   ",
") ) ! ) ) ) )   ",
"~ { ] { ^ ^ / ^ ",
"( _ : < [ _ } < ",
"| 1 : 2 : : 2 1 ",
"3 4 5 3 6 6 2 7 ",
"8 9 4 0 9 a b 0 ",
"c d c c c c c e ",
"f g h f i h f j ",
"k k k l k m k k ",
"n n o o o p q o ",
"r r s t s r s r ",
"u v u w w v x u ",
"y z A z B y C y ",
"D E A D A A A A ",
"F G F G F G G H ",
"I I J I J J I J ",
"K K K K L L K K ",
"M N M O M P M M ",
"Q Q R S Q Q Q T ",
"U U V U W U W U ",
"X Y Z Z ` Y Z ` ",
" ...+. .....X @.",
"#.$.$.%.%.%.$.&.",
"*.=.=.*.=.=.-.=.",
";.;.;.>.,.;.'.;.",
").!.~.{.~.{.~.)."};
