/* XPM */
static char * close_prelight_xpm[] = {
"49 30 3 1",
" 	c None",
".	c #3980D2",
"+	c #E53917",
".................................................",
"++++++++++++++++++++++++++++++++++++++++++++++++.",
"++++++++++++++++++++++++++++++++++++++++++++++++.",
"++++++++++++++++++++++++++++++++++++++++++++++++.",
"++++++++++++++++++++++++++++++++++++++++++++++++.",
"++++++++++++++++++++++++++++++++++++++++++++++++.",
"++++++++++++++++++++++++++++++++++++++++++++++++.",
"++++++++++++++++++++++++++++++++++++++++++++++++.",
"++++++++++++++++++++++++++++++++++++++++++++++++.",
"++++++++++++++++++++++++++++++++++++++++++++++++.",
"++++++++++++++++++++++++++++++++++++++++++++++++.",
"++++++++++++++++++++++++++++++++++++++++++++++++.",
"++++++++++++++++++++++++++++++++++++++++++++++++.",
"++++++++++++++++++++++++++++++++++++++++++++++++.",
"++++++++++++++++++++++++++++++++++++++++++++++++.",
"++++++++++++++++++++++++++++++++++++++++++++++++.",
"++++++++++++++++++++++++++++++++++++++++++++++++.",
"++++++++++++++++++++++++++++++++++++++++++++++++.",
"+++++++++++++++++++++++++++++++++++++++++++++++. ",
"++++++++++++++++++++++++++++++++++++++++++++++.  ",
"..............................................   ",
"                                                 ",
"                                                 ",
"                                                 ",
"                                                 ",
"                                                 ",
"                                                 ",
"                                                 ",
"                                                 ",
"                                                 "};
